X: 56
T: Fang yang
L: 1/16
M: 2/4
K: G
B2 B2 d2 d e [I:setbarnb 1]| 
d2 B A2< G2 A | 
A2 B2 d2 B A | 
G6A2 | 
B2 B2 d2 d B | 
A2 G2 B2 B A | 
E F E DB,4 | 
A2 G A B2 F E | 
D8 |]

@@@ Tune index: 8930
